packages/assets/files/vkt/mono/logo/logo.svg

<svg width="40" height="40" viewBox="0 0 40 40" fill="none" xmlns="http://www.w3.org/2000/svg">
  <g clip-path="url(#clip0_1061_64)">
    <path
      d="M33.2347 5.19495C29.751 2.08112 25.1531 0.1875 20.1127 0.1875H19.8921C9.01375 0.1875 0.195312 9.00594 0.195312 19.8843V20.1049C0.195312 21.5616 0.353469 22.9811 0.653469 24.3478L33.2347 5.19495Z"
      fill="black" />
    <path
      d="M1.37891 26.8438C4.1321 34.4016 11.3814 39.798 19.8913 39.798H20.1119C28.6218 39.798 35.8711 34.4012 38.6243 26.8438H1.37891Z"
      fill="black" />
    <path
      d="M31.375 14.7389V14.6279C31.375 11.5464 32.7832 8.79389 34.9914 6.97865C34.4438 6.3478 33.8566 5.75205 33.2339 5.19531L0.652344 24.3481C0.839932 25.2035 1.08355 26.0379 1.37823 26.8474H38.6236C38.9073 26.0684 39.1431 25.2666 39.3279 24.445C34.7928 23.5418 31.3743 19.5393 31.3743 14.7386L31.375 14.7389Z"
      fill="white" />
    <path
      d="M31.375 14.633V14.7439C31.375 19.5447 34.7931 23.5468 39.3285 24.4503C39.6424 23.0539 39.8083 21.6017 39.8083 20.1106V19.89C39.8083 14.9532 37.992 10.4408 34.9913 6.98438C32.7832 8.79962 31.375 11.5521 31.375 14.6337V14.633Z"
      fill="black" />
  </g>
  <defs>
    <clipPath id="clip0_1061_64">
      <rect width="40" height="40" fill="white" />
    </clipPath>
  </defs>
</svg>

<svg xmlns="http://www.w3.org/2000/svg" width="40" height="40" fill="#000">
  <path
    d="M33.235 5.195A19.624 19.624 0 0 0 20.113.187h-.22C9.012.188.194 9.007.194 19.884v.22c0 1.458.158 2.877.458 4.244L33.235 5.195ZM1.379 26.844C4.132 34.402 11.38 39.798 19.89 39.798h.22c8.51 0 15.76-5.397 18.513-12.954H1.38ZM31.375 14.633v.11c0 4.802 3.418 8.804 7.953 9.707.314-1.396.48-2.848.48-4.34v-.22a19.62 19.62 0 0 0-4.817-12.906 9.877 9.877 0 0 0-3.616 7.65v-.001Z" />
</svg>
